X: 1
T: the Maids Last Wish  (A)
M: 6/8
L: 1/8
%Q: 3/4=120
S: Playford, Dancing Master,9th Ed,1695.
O: Playford 1695
K: A
e |\
"A"c2B A2G | "A7"(AE)=G "D"F2f | "A"e2d (cA)c | "E7"e3 E2e |\
"A"c2B A2G | "A7"(AE)=G "D"F2d | "E7"c2B B2A | "A"(A3 A2) :|
|: E |\
"A"C2D E2A | "D"(FD)A d2c | "Bm"BAG "B7"F2B | "E"G3- "E7"G2e |\
"A"cA2 a2e | "A7"=g3 "D"f2e | "Bm"dcB "E7"B2A | "A"A3- A2 :|
